X: 1
T: Jackie Coleman's
M: 4/4
L: 1/8
R: reel
K: Dmaj
|:B|A3B AF~F2|DF~F2 ADFA|dAce d2fg|afed BGGB|
A3B AF~F2|DF~F2 ADFA|dAce d2fg|afeg fdd:|
|:A|d2fd Ad (3fed|B=ceG ~G2ec|d2fd Adfa|gbeg fddA|
d2fd Ad (3fed|B=cec ~g3e|defg aAdf|gbeg fdd:|
